Yaru++/mimetypes/16/text-x-c++.svg

<svg id="svg4" height="16" width="16" xmlns="http://www.w3.org/2000/svg">
  <g fill="#808080">
    <path id="path816" d="m3.8339844 3.6660156s-3.3339844.0006507-3.3339844 3.3339844v1.6660156c0 3.3333334 3.3339844 3.3339844 3.3339844 3.3339844h1.6660156v-1.666016h-1.6660156s-1.6679688-.0013-1.6679688-1.6679684v-1.6660156c0-1.6666666 1.6679688-1.6660156 1.6679688-1.6660156h1.6660156v-1.6679688z"/>
    <path id="path821" d="m7.0091217 5.33831v.017578 1.6660156h-1.667969v1.6679685h1.667969v1.6660159h1.666016v-1.6660159h1.6523433v-1.6679684h-1.6523433v-1.234375h-.002v-.4433594z"/>
    <path id="path823" d="m12.40231 5.33831v.017578 1.6660156h-1.667969v1.6679685h1.667969v1.6660159h1.666016v-1.6660159h1.652343v-1.6679684h-1.652343v-1.234375h-.002v-.4433594z"/>
  </g>
</svg>

<?xml version="1.0" encoding="UTF-8" standalone="no"?>
<svg
   xmlns:dc="http://purl.org/dc/elements/1.1/"
   xmlns:cc="http://creativecommons.org/ns#"
   xmlns:rdf="http://www.w3.org/1999/02/22-rdf-syntax-ns#"
   xmlns:svg="http://www.w3.org/2000/svg"
   xmlns="http://www.w3.org/2000/svg"
   xmlns:sodipodi="http://sodipodi.sourceforge.net/DTD/sodipodi-0.dtd"
   xmlns:inkscape="http://www.inkscape.org/namespaces/inkscape"
   width="16"
   height="16"
   version="1.1"
   id="svg4"
   sodipodi:docname="text-x-c++.svg"
   inkscape:version="0.92.4 (5da689c313, 2019-01-14)">
  <metadata
     id="metadata10">
    <rdf:RDF>
      <cc:Work
         rdf:about="">
        <dc:format>image/svg+xml</dc:format>
        <dc:type
           rdf:resource="http://purl.org/dc/dcmitype/StillImage" />
        <dc:title />
      </cc:Work>
    </rdf:RDF>
  </metadata>
  <defs
     id="defs8">
    <clipPath
       clipPathUnits="userSpaceOnUse"
       id="clipPath983">
      <path
         sodipodi:nodetypes="scccssscsss"
         inkscape:connector-curvature="0"
         id="path985"
         d="m 325.09646,237 c -2.80769,0 -3.10979,0.28839 -3.09603,3.10176 V 244 v 3.89824 c -0.0138,2.81337 0.28834,3.10176 3.09603,3.10176 h 5.8075 C 333.71166,251 334,250.71165 334,247.89824 V 244 240.10176 C 334,237.28836 333.71165,237 330.90396,237 Z"
         style="color:#000000;display:inline;overflow:visible;visibility:visible;opacity:1;fill:#46a926;fill-opacity:1;fill-rule:nonzero;stroke:none;stroke-width:2;stroke-miterlimit:4;stroke-dasharray:none;stroke-opacity:1;marker:none;enable-background:accumulate" />
    </clipPath>
  </defs>
  <sodipodi:namedview
     pagecolor="#ffffff"
     bordercolor="#666666"
     borderopacity="1"
     objecttolerance="10"
     gridtolerance="10"
     guidetolerance="10"
     inkscape:pageopacity="0"
     inkscape:pageshadow="2"
     inkscape:window-width="1920"
     inkscape:window-height="1016"
     id="namedview6"
     showgrid="false"
     inkscape:zoom="52.4375"
     inkscape:cx="8"
     inkscape:cy="8"
     inkscape:window-x="0"
     inkscape:window-y="27"
     inkscape:window-maximized="1"
     inkscape:current-layer="svg4" />
  <path
     style="color:#000000;font-style:normal;font-variant:normal;font-weight:normal;font-stretch:normal;font-size:medium;line-height:normal;font-family:Sans;-inkscape-font-specification:Sans;text-indent:0;text-align:start;text-decoration:none;text-decoration-line:none;letter-spacing:normal;word-spacing:normal;text-transform:none;writing-mode:lr-tb;direction:ltr;baseline-shift:baseline;text-anchor:start;display:inline;overflow:visible;visibility:visible;fill:#808080;fill-opacity:1;stroke:none;stroke-width:3.33333302;marker:none;enable-background:accumulate"
     d="M 3.8339844,3.6660156 C 3.8339844,3.6660156 0.5,3.6666663 0.5,7 V 8.6660156 C 0.5,11.999349 3.8339844,12 3.8339844,12 H 5.5 V 10.333984 H 3.8339844 c 0,0 -1.6679688,-0.0013 -1.6679688,-1.6679684 V 7 c 0,-1.6666666 1.6679688,-1.6660156 1.6679688,-1.6660156 H 5.5 V 3.6660156 Z"
     id="path816"
     inkscape:connector-curvature="0"
     sodipodi:nodetypes="cssccccsscccc" />
  <path
     id="path821"
     d="m 7.0091217,5.33831 v 0.017578 1.6660156 h -1.667969 v 1.6679685 h 1.667969 v 1.6660159 h 1.666016 V 8.6898721 H 10.327481 V 7.0219037 H 8.6751377 v -1.234375 h -0.002 V 5.3441693 Z"
     style="color:#000000;font-style:normal;font-variant:normal;font-weight:normal;font-stretch:normal;font-size:medium;line-height:normal;font-family:Sans;-inkscape-font-specification:Sans;text-indent:0;text-align:start;text-decoration:none;text-decoration-line:none;letter-spacing:normal;word-spacing:normal;text-transform:none;writing-mode:lr-tb;direction:ltr;baseline-shift:baseline;text-anchor:start;display:inline;overflow:visible;visibility:visible;fill:#808080;fill-opacity:1;stroke:none;stroke-width:3.33333302;marker:none;enable-background:accumulate"
     inkscape:connector-curvature="0"
     sodipodi:nodetypes="cccccccccccccccc" />
  <path
     sodipodi:nodetypes="cccccccccccccccc"
     inkscape:connector-curvature="0"
     style="color:#000000;font-style:normal;font-variant:normal;font-weight:normal;font-stretch:normal;font-size:medium;line-height:normal;font-family:Sans;-inkscape-font-specification:Sans;text-indent:0;text-align:start;text-decoration:none;text-decoration-line:none;letter-spacing:normal;word-spacing:normal;text-transform:none;writing-mode:lr-tb;direction:ltr;baseline-shift:baseline;text-anchor:start;display:inline;overflow:visible;visibility:visible;fill:#808080;fill-opacity:1;stroke:none;stroke-width:3.33333302;marker:none;enable-background:accumulate"
     d="m 12.40231,5.33831 v 0.017578 1.6660156 h -1.667969 v 1.6679685 h 1.667969 v 1.6660159 h 1.666016 V 8.6898721 h 1.652343 V 7.0219037 h -1.652343 v -1.234375 h -0.002 V 5.3441693 Z"
     id="path823" />
</svg>
